ix/backward-15-seconds_outline.svg

<svg viewBox="0 0 24 24" fill="none" xmlns="http://www.w3.org/2000/svg" height="1em" width="1em">
  <path d="M14.4294 16.9203H12.1395C11.7295 16.9203 11.3895 16.5803 11.3895 16.1703C11.3895 15.7603 11.7295 15.4203 12.1395 15.4203H14.4294C14.8594 15.4203 15.2095 15.0703 15.2095 14.6403C15.2095 14.2103 14.8594 13.8603 14.4294 13.8603H12.1395C11.8995 13.8603 11.6695 13.7403 11.5295 13.5503C11.3895 13.3603 11.3494 13.1003 11.4294 12.8703L12.1894 10.5803C12.2894 10.2703 12.5795 10.0703 12.8995 10.0703H15.9595C16.3695 10.0703 16.7095 10.4103 16.7095 10.8203C16.7095 11.2303 16.3695 11.5703 15.9595 11.5703H13.4394L13.1794 12.3603H14.4294C15.6894 12.3603 16.7095 13.3803 16.7095 14.6403C16.7095 15.9003 15.6794 16.9203 14.4294 16.9203Z" fill="#292D32"/>
  <path d="M9.53955 16.9198C9.12955 16.9198 8.78955 16.5798 8.78955 16.1698V12.7799L8.59955 12.9998C8.31955 13.3098 7.84955 13.3298 7.53955 13.0598C7.22955 12.7798 7.20955 12.3098 7.47955 11.9998L8.97955 10.3298C9.18955 10.0998 9.51957 10.0198 9.80957 10.1298C10.0996 10.2398 10.2895 10.5198 10.2895 10.8298V16.1798C10.2895 16.5898 9.95955 16.9198 9.53955 16.9198Z" fill="#292D32"/>
  <path d="M10.02 5.21993C9.85 5.21993 9.68997 5.16995 9.54997 5.04995C9.22997 4.78995 9.17998 4.31996 9.42998 3.99996L11.41 1.52999C11.67 1.20999 12.14 1.15993 12.46 1.40993C12.78 1.65993 12.83 2.13998 12.58 2.45998L10.6 4.92995C10.46 5.11995 10.24 5.21993 10.02 5.21993Z" fill="#292D32"/>
  <path d="M11.9994 22.7498C6.68939 22.7498 2.35938 18.4297 2.35938 13.1097C2.35938 11.0397 3.02939 9.04973 4.30939 7.34973C4.55939 7.01973 5.02938 6.94977 5.35938 7.19977C5.68937 7.44977 5.7594 7.91976 5.5094 8.24976C4.4294 9.68976 3.85938 11.3697 3.85938 13.1097C3.85938 17.5997 7.50939 21.2498 11.9994 21.2498C16.4894 21.2498 20.1394 17.5997 20.1394 13.1097C20.1394 8.61974 16.4894 4.96973 11.9994 4.96973C11.4194 4.96973 10.8294 5.03976 10.1894 5.18976C9.77939 5.27976 9.37937 5.02976 9.28937 4.62976C9.19937 4.22976 9.44937 3.81974 9.84937 3.72974C10.5994 3.55974 11.3094 3.46973 11.9994 3.46973C17.3094 3.46973 21.6394 7.78974 21.6394 13.1097C21.6394 18.4297 17.3094 22.7498 11.9994 22.7498Z" fill="#292D32"/>
</svg>

<svg viewBox="0 0 24 24" fill="none" xmlns="http://www.w3.org/2000/svg" height="1em" width="1em">
  <path d="M14.43 16.92h-2.29c-.41 0-.75-.34-.75-.75s.34-.75.75-.75h2.29a.781.781 0 0 0 0-1.56h-2.29a.747.747 0 0 1-.71-.99l.76-2.29c.1-.31.39-.51.71-.51h3.06c.41 0 .75.34.75.75s-.34.75-.75.75h-2.52l-.26.79h1.25a2.28 2.28 0 1 1 0 4.56Zm-4.89 0c-.41 0-.75-.34-.75-.75v-3.39L8.6 13c-.28.31-.75.33-1.06.06A.756.756 0 0 1 7.48 12l1.5-1.67c.21-.23.54-.31.83-.2.29.11.48.39.48.7v5.35c0 .41-.33.74-.75.74Zm.48-11.7a.7.7 0 0 1-.47-.17A.757.757 0 0 1 9.43 4l1.98-2.47c.26-.32.73-.37 1.05-.12.32.25.37.73.12 1.05L10.6 4.93a.72.72 0 0 1-.58.29Z" fill="#292D32"/>
  <path d="M12 22.75c-5.31 0-9.64-4.32-9.64-9.64 0-2.07.67-4.06 1.95-5.76a.75.75 0 0 1 1.2.9c-1.08 1.44-1.65 3.12-1.65 4.86 0 4.49 3.65 8.14 8.14 8.14s8.14-3.65 8.14-8.14S16.49 4.97 12 4.97c-.58 0-1.17.07-1.81.22a.75.75 0 0 1-.34-1.46A9.7 9.7 0 0 1 12 3.47c5.31 0 9.64 4.32 9.64 9.64s-4.33 9.64-9.64 9.64Z" fill="#292D32"/>
</svg>
